images/icons/tick.svg

<svg width="30" height="30" viewBox="0 0 30 30" fill="none" xmlns="http://www.w3.org/2000/svg">
<path d="M14.9934 17.825L18.8408 13.325C19.0864 13.025 19.0864 12.525 18.8408 12.225C18.5952 11.925 18.1859 11.925 17.9404 12.225L14.5023 16.225L11.0642 12.225C10.8186 11.925 10.4093 11.925 10.1637 12.225C10.0819 12.425 10 12.625 10 12.825C10 13.025 10.0819 13.225 10.1637 13.325L14.0111 17.825C14.3385 18.125 14.666 18.125 14.9934 17.825Z" fill="black"/>
</svg>

<svg width="30" height="30" fill="none" xmlns="http://www.w3.org/2000/svg"><path d="M14.993 17.825l3.848-4.5c.245-.3.245-.8 0-1.1a.563.563 0 00-.9 0l-3.439 4-3.438-4a.563.563 0 00-.9 0c-.082.2-.164.4-.164.6 0 .2.082.4.164.5l3.847 4.5c.328.3.655.3.982 0z" fill="#000"/></svg>
